X: 401
T: Bir Nigâh-ı İltifâtın
C: Ahmet Avni Konuk
O: Turkey
F: http://compmusic.upf.edu/node/140
N: ferahfeza--kupe--yuruksemai_ii--bir--ahmet_avni_konuk
N: makam= ferahfeza
N: form= kupe
N: usul= yuruksemai_ii = 6/8
M: 6/8
L: 1/16
K: C _B   
Q: 1/4=120
%%MIDI tuningsystem comma53
f2e2 g2f4z2  | a2g2 a2g2 f2e2  | d4 d2^c2 d2e2  | \
w:  Bir  *  ni gâh_  |  ı   |  il ti fâ  | 
^c2d8z2  | f4 f2^c4z2  | 
w:  tın   |  â şı ka   | 
d2e2 f2g2 f4  | gba2 g2fe d2e2  | f8-f2z2  | \
w:  Fe  |  rah *  *  fe zâ    |   | 
c2f2 f2fe f4  | 
w:  Gel  *  di riğ   | 
g2f2 g2f2 e2ed  | d4 dcc4cB  | A4 c2=B2 c2z2  | \
w:  et  |  me  ni *  gâh_  |  ı   | 
B4 B2B2 A2AG  | 
w:  lût fu nu   | 
G2AB AGFE D4  | F2E2 D2^C2 D2ED  | D8-D2z2  | |


